img/a/accountone.de.svg

<svg xmlns="http://www.w3.org/2000/svg" width="526" height="261" style="shape-rendering:geometricPrecision;text-rendering:geometricPrecision;image-rendering:optimizeQuality;fill-rule:evenodd;clip-rule:evenodd"><path fill="#fe6500" d="M319.5-.5h34c.521 50.312.521 100.646 0 151h17v29h-63v-29h12v-13a120.655 120.655 0 0 0 0-31v-64c-12.684.332-25.351 0-38-1a1120.221 1120.221 0 0 0 38-42Z" style="opacity:.973"/><path fill="#0555a2" d="M319.5 106.5a120.655 120.655 0 0 1 0 31c-27.002-.167-54.002 0-81 .5l-37 41c-16 .667-32 .667-48 0a11635.66 11635.66 0 0 1 124-133 400.23 400.23 0 0 1 40 0 6813.97 6813.97 0 0 0-51 59.5c17.654 1 35.321 1.333 53 1Z" style="opacity:.968"/><path fill="#0254a3" d="M88.5 260.5h-8c-19.159-4.952-26.659-17.285-22.5-37 4.297-12.572 13.13-18.906 26.5-19 8.058-.13 14.725 2.703 20 8.5-1.5 2.833-3.667 5-6.5 6.5-7.58-5.542-15.414-6.042-23.5-1.5-9.322 9.721-9.322 19.388 0 29 8.526 3.937 16.526 3.104 24-2.5 3.243 2.048 5.41 4.715 6.5 8-4.795 4.31-10.295 6.977-16.5 8Z" style="opacity:.897"/><path fill="#0254a3" d="M138.5 260.5h-8c-19.007-4.283-26.84-16.283-23.5-36 7.552-18.188 20.719-24.022 39.5-17.5a27.816 27.816 0 0 1 8 6 34.517 34.517 0 0 1-7.5 6.5c-10.537-6.959-19.87-5.625-28 4-3.567 8.234-2.4 15.734 3.5 22.5 8.674 5.014 17.007 4.514 25-1.5 3.691 2.149 5.858 5.149 6.5 9-4.703 3.606-9.87 5.939-15.5 7Z" style="opacity:.904"/><path fill="#0254a3" d="M188.5 260.5h-8c-18.793-4.533-26.293-16.533-22.5-36 6.239-17.328 18.405-23.495 36.5-18.5 8.832 3.145 14.332 9.312 16.5 18.5 2.535 11.221.035 21.054-7.5 29.5-4.642 3.26-9.642 5.427-15 6.5Zm-8-46c12.277-.56 19.277 5.274 21 17.5-.637 10.804-6.304 16.97-17 18.5-10.696-1.53-16.363-7.696-17-18.5.799-8.611 5.132-14.445 13-17.5Z" style="opacity:.913"/><path fill="#fe6500" d="M402.5 260.5h-8c-15.414-2.76-23.414-12.094-24-28 3.698-24.161 17.365-32.661 41-25.5 12.084 7.886 16.584 19.052 13.5 33.5-3.602 11.194-11.102 17.861-22.5 20Zm-8-46c12.279-.557 19.279 5.276 21 17.5-2.424 15.543-11.09 20.877-26 16-8.455-7.652-9.955-16.485-4.5-26.5 2.505-3.353 5.671-5.686 9.5-7Z" style="opacity:.911"/><path fill="#0254a3" d="M-.5 258.5v-3a1121.37 1121.37 0 0 0 23-49.5 24.551 24.551 0 0 1 12 .5 1745.257 1745.257 0 0 1 23 51c-4 1.333-8 1.333-12 0-1.576-2.479-2.576-5.146-3-8-9.357-.332-18.69.002-28 1a45.817 45.817 0 0 0-3 7 36.877 36.877 0 0 1-12 1Zm28-39c3.741 5.51 6.741 11.51 9 18a64.875 64.875 0 0 1-16 1 324.897 324.897 0 0 1 7-19Z" style="opacity:.91"/><path fill="#0254a3" d="M245.5 260.5h-7c-10.188-1.356-16.688-7.023-19.5-17a721.824 721.824 0 0 1-.5-38h10a262.66 262.66 0 0 0 1.5 37c4.898 7.516 11.398 9.349 19.5 5.5a36.078 36.078 0 0 0 3.5-4.5 261.867 261.867 0 0 0 1.5-38h11c.167 11.671 0 23.338-.5 35-2.013 11.179-8.513 17.845-19.5 20Z" style="opacity:.923"/><path fill="#0254a3" d="M274.5 205.5a40.914 40.914 0 0 1 9 .5 1690.957 1690.957 0 0 1 24.5 30.5c.5-10.328.666-20.661.5-31h11v53a15.418 15.418 0 0 0-7 1 1298.356 1298.356 0 0 1-26.5-34 544.417 544.417 0 0 0-.5 33h-11v-53Z" style="opacity:.907"/><path fill="#0254a3" d="M324.5 205.5h44v10h-17v43h-11v-43h-16v-10Z" style="opacity:.915"/><path fill="#fe6500" d="M432.5 205.5c3.398-.32 6.732.013 10 1a802.289 802.289 0 0 1 23.5 30c.5-10.328.666-20.661.5-31h11v53c-2.292-.256-4.459.077-6.5 1l-27-34a544.417 544.417 0 0 0-.5 33h-11v-53Z" style="opacity:.909"/><path fill="#fe6500" d="M525.5 205.5v11h-29v11h28v10h-28v11h29v10h-40v-53h40Z" style="opacity:.936"/></svg>

<?xml version="1.0" encoding="UTF-8"?>
<!DOCTYPE svg PUBLIC "-//W3C//DTD SVG 1.1//EN" "http://www.w3.org/Graphics/SVG/1.1/DTD/svg11.dtd">
<svg xmlns="http://www.w3.org/2000/svg" version="1.1" width="526px" height="261px" style="shape-rendering:geometricPrecision; text-rendering:geometricPrecision; image-rendering:optimizeQuality; fill-rule:evenodd; clip-rule:evenodd" xmlns:xlink="http://www.w3.org/1999/xlink">
<g><path style="opacity:0.973" fill="#fe6500" d="M 319.5,-0.5 C 330.833,-0.5 342.167,-0.5 353.5,-0.5C 354.021,49.8122 354.021,100.146 353.5,150.5C 359.167,150.5 364.833,150.5 370.5,150.5C 370.5,160.167 370.5,169.833 370.5,179.5C 349.5,179.5 328.5,179.5 307.5,179.5C 307.5,169.833 307.5,160.167 307.5,150.5C 311.5,150.5 315.5,150.5 319.5,150.5C 319.5,146.167 319.5,141.833 319.5,137.5C 320.833,127.167 320.833,116.833 319.5,106.5C 319.5,85.1667 319.5,63.8333 319.5,42.5C 306.816,42.8324 294.149,42.4991 281.5,41.5C 294.558,27.7788 307.225,13.7788 319.5,-0.5 Z"/></g>
<g><path style="opacity:0.968" fill="#0555a2" d="M 319.5,106.5 C 320.833,116.833 320.833,127.167 319.5,137.5C 292.498,137.333 265.498,137.5 238.5,138C 226.167,151.667 213.833,165.333 201.5,179C 185.5,179.667 169.5,179.667 153.5,179C 194.466,134.366 235.8,90.0322 277.5,46C 290.833,45.3333 304.167,45.3333 317.5,46C 300.382,65.7402 283.382,85.5735 266.5,105.5C 284.154,106.5 301.821,106.833 319.5,106.5 Z"/></g>
<g><path style="opacity:0.897" fill="#0254a3" d="M 88.5,260.5 C 85.8333,260.5 83.1667,260.5 80.5,260.5C 61.3411,255.548 53.8411,243.215 58,223.5C 62.2971,210.928 71.1304,204.594 84.5,204.5C 92.5579,204.37 99.2246,207.203 104.5,213C 103,215.833 100.833,218 98,219.5C 90.4197,213.958 82.5864,213.458 74.5,218C 65.1781,227.721 65.1781,237.388 74.5,247C 83.0263,250.937 91.0263,250.104 98.5,244.5C 101.743,246.548 103.91,249.215 105,252.5C 100.205,256.81 94.705,259.477 88.5,260.5 Z"/></g>
<g><path style="opacity:0.904" fill="#0254a3" d="M 138.5,260.5 C 135.833,260.5 133.167,260.5 130.5,260.5C 111.493,256.217 103.66,244.217 107,224.5C 114.552,206.312 127.719,200.478 146.5,207C 149.524,208.513 152.191,210.513 154.5,213C 152.284,215.553 149.784,217.72 147,219.5C 136.463,212.541 127.13,213.875 119,223.5C 115.433,231.734 116.6,239.234 122.5,246C 131.174,251.014 139.507,250.514 147.5,244.5C 151.191,246.649 153.358,249.649 154,253.5C 149.297,257.106 144.13,259.439 138.5,260.5 Z"/></g>
<g><path style="opacity:0.913" fill="#0254a3" d="M 188.5,260.5 C 185.833,260.5 183.167,260.5 180.5,260.5C 161.707,255.967 154.207,243.967 158,224.5C 164.239,207.172 176.405,201.005 194.5,206C 203.332,209.145 208.832,215.312 211,224.5C 213.535,235.721 211.035,245.554 203.5,254C 198.858,257.26 193.858,259.427 188.5,260.5 Z M 180.5,214.5 C 192.777,213.94 199.777,219.774 201.5,232C 200.863,242.804 195.196,248.97 184.5,250.5C 173.804,248.97 168.137,242.804 167.5,232C 168.299,223.389 172.632,217.555 180.5,214.5 Z"/></g>
<g><path style="opacity:0.911" fill="#fe6500" d="M 402.5,260.5 C 399.833,260.5 397.167,260.5 394.5,260.5C 379.086,257.74 371.086,248.406 370.5,232.5C 374.198,208.339 387.865,199.839 411.5,207C 423.584,214.886 428.084,226.052 425,240.5C 421.398,251.694 413.898,258.361 402.5,260.5 Z M 394.5,214.5 C 406.779,213.943 413.779,219.776 415.5,232C 413.076,247.543 404.41,252.877 389.5,248C 381.045,240.348 379.545,231.515 385,221.5C 387.505,218.147 390.671,215.814 394.5,214.5 Z"/></g>
<g><path style="opacity:0.91" fill="#0254a3" d="M -0.5,258.5 C -0.5,257.5 -0.5,256.5 -0.5,255.5C 7.5365,239.255 15.2032,222.755 22.5,206C 26.5411,205.173 30.5411,205.34 34.5,206.5C 42.4409,223.381 50.1076,240.381 57.5,257.5C 53.5,258.833 49.5,258.833 45.5,257.5C 43.9239,255.021 42.9239,252.354 42.5,249.5C 33.1429,249.168 23.8096,249.502 14.5,250.5C 13.3052,252.751 12.3052,255.085 11.5,257.5C 7.55461,258.491 3.55461,258.824 -0.5,258.5 Z M 27.5,219.5 C 31.2414,225.01 34.2414,231.01 36.5,237.5C 31.2079,238.495 25.8746,238.828 20.5,238.5C 22.6331,232.102 24.9664,225.768 27.5,219.5 Z"/></g>
<g><path style="opacity:0.923" fill="#0254a3" d="M 245.5,260.5 C 243.167,260.5 240.833,260.5 238.5,260.5C 228.312,259.144 221.812,253.477 219,243.5C 218.5,230.838 218.333,218.171 218.5,205.5C 221.833,205.5 225.167,205.5 228.5,205.5C 228.13,217.88 228.63,230.214 230,242.5C 234.898,250.016 241.398,251.849 249.5,248C 250.787,246.59 251.954,245.09 253,243.5C 254.42,230.894 254.92,218.228 254.5,205.5C 258.167,205.5 261.833,205.5 265.5,205.5C 265.667,217.171 265.5,228.838 265,240.5C 262.987,251.679 256.487,258.345 245.5,260.5 Z"/></g>
<g><path style="opacity:0.907" fill="#0254a3" d="M 274.5,205.5 C 277.518,205.335 280.518,205.502 283.5,206C 291.787,216.075 299.953,226.242 308,236.5C 308.5,226.172 308.666,215.839 308.5,205.5C 312.167,205.5 315.833,205.5 319.5,205.5C 319.5,223.167 319.5,240.833 319.5,258.5C 317.08,258.292 314.747,258.626 312.5,259.5C 303.476,248.31 294.642,236.976 286,225.5C 285.5,236.495 285.333,247.495 285.5,258.5C 281.833,258.5 278.167,258.5 274.5,258.5C 274.5,240.833 274.5,223.167 274.5,205.5 Z"/></g>
<g><path style="opacity:0.915" fill="#0254a3" d="M 324.5,205.5 C 339.167,205.5 353.833,205.5 368.5,205.5C 368.5,208.833 368.5,212.167 368.5,215.5C 362.833,215.5 357.167,215.5 351.5,215.5C 351.5,229.833 351.5,244.167 351.5,258.5C 347.833,258.5 344.167,258.5 340.5,258.5C 340.5,244.167 340.5,229.833 340.5,215.5C 335.167,215.5 329.833,215.5 324.5,215.5C 324.5,212.167 324.5,208.833 324.5,205.5 Z"/></g>
<g><path style="opacity:0.909" fill="#fe6500" d="M 432.5,205.5 C 435.898,205.18 439.232,205.513 442.5,206.5C 450.575,216.319 458.408,226.319 466,236.5C 466.5,226.172 466.666,215.839 466.5,205.5C 470.167,205.5 473.833,205.5 477.5,205.5C 477.5,223.167 477.5,240.833 477.5,258.5C 475.208,258.244 473.041,258.577 471,259.5C 462,248.167 453,236.833 444,225.5C 443.5,236.495 443.333,247.495 443.5,258.5C 439.833,258.5 436.167,258.5 432.5,258.5C 432.5,240.833 432.5,223.167 432.5,205.5 Z"/></g>
<g><path style="opacity:0.936" fill="#fe6500" d="M 525.5,205.5 C 525.5,209.167 525.5,212.833 525.5,216.5C 515.833,216.5 506.167,216.5 496.5,216.5C 496.5,220.167 496.5,223.833 496.5,227.5C 505.833,227.5 515.167,227.5 524.5,227.5C 524.5,230.833 524.5,234.167 524.5,237.5C 515.167,237.5 505.833,237.5 496.5,237.5C 496.5,241.167 496.5,244.833 496.5,248.5C 506.167,248.5 515.833,248.5 525.5,248.5C 525.5,251.833 525.5,255.167 525.5,258.5C 512.167,258.5 498.833,258.5 485.5,258.5C 485.5,240.833 485.5,223.167 485.5,205.5C 498.833,205.5 512.167,205.5 525.5,205.5 Z"/></g>
</svg>
